X: 20963
M: 6/8
L: 1/8
K: F
V: 1 name="3"
c |\
fef cde | fef cde | fef a2g | c3 ccc |\
g^fg ceg | g^fg ceg | g^fg beg | f3- f2 H|]
c3 fed | c2A A2c | B2G G2B | d2c A2c |\
c3 fed | c2A A2c | B2G d2c | F3- "^D.C."F2 |]


